public/Img/About/values__class.svg

<svg width="48" height="48" viewBox="0 0 48 48" fill="none" xmlns="http://www.w3.org/2000/svg">
<path d="M38 12H30V7.52001C30.0033 5.83245 28.9472 4.32435 27.3602 3.75052C25.7731 3.17669 23.9967 3.66058 22.92 4.96001L17.4 11.6C16.4983 12.6767 16.0029 14.0356 16 15.44V44H38C41.3137 44 44 41.3137 44 38V18C44 14.6863 41.3137 12 38 12Z" fill="#6B7CFF"/>
<path d="M4 18V42C4 43.1046 4.89543 44 6 44H12V16H6C4.89543 16 4 16.8954 4 18Z" fill="#6B7CFF"/>
</svg>

<svg width="48" height="48" fill="none" xmlns="http://www.w3.org/2000/svg"><path d="M38 12h-8V7.52a4 4 0 0 0-7.08-2.56L17.4 11.6a6 6 0 0 0-1.4 3.84V44h22a6 6 0 0 0 6-6V18a6 6 0 0 0-6-6ZM4 18v24a2 2 0 0 0 2 2h6V16H6a2 2 0 0 0-2 2Z" fill="#6B7CFF"/></svg>
